img/svg/telefon.svg

<svg width="25" height="24" viewBox="0 0 25 24" fill="none" xmlns="http://www.w3.org/2000/svg">
<path d="M0.0114288 18.9406C-0.0394592 19.3305 0.0793495 19.6695 0.367361 19.9576L3.74871 23.3134C3.90125 23.4829 4.10036 23.6271 4.34613 23.7456C4.59189 23.8643 4.83337 23.9406 5.07058 23.9744C5.08753 23.9744 5.1385 23.9788 5.22329 23.9872C5.30791 23.9957 5.41808 24 5.55367 24C5.87579 24 6.39701 23.9449 7.11735 23.8347C7.83769 23.7245 8.719 23.4533 9.76129 23.0211C10.8038 22.5889 11.986 21.9406 13.308 21.0762C14.63 20.212 16.0368 19.0254 17.5283 17.5169C18.7147 16.3474 19.6978 15.2288 20.4775 14.161C21.2571 13.0932 21.8842 12.1059 22.3588 11.1991C22.8334 10.2924 23.1894 9.47032 23.4266 8.73304C23.6639 7.99575 23.8249 7.36016 23.9097 6.82626C23.9944 6.29236 24.0283 5.87287 24.0114 5.56779C23.9944 5.2627 23.986 5.09321 23.986 5.05931C23.9521 4.82203 23.8758 4.5805 23.7572 4.33474C23.6385 4.08898 23.4944 3.88982 23.3249 3.73728L19.9436 0.355932C19.7063 0.118644 19.4351 0 19.13 0C18.9097 0 18.7148 0.0635592 18.5453 0.190678C18.3758 0.317796 18.2317 0.474575 18.1131 0.661016L15.3928 5.82202C15.2402 6.09321 15.1978 6.38982 15.2656 6.71185C15.3334 7.03389 15.4775 7.30507 15.6978 7.52541L16.9436 8.77117C16.9775 8.80507 17.0072 8.86015 17.0326 8.93643C17.058 9.0127 17.0707 9.07625 17.0707 9.1271C17.0029 9.48303 16.8504 9.88981 16.6131 10.3474C16.4097 10.7542 16.0961 11.25 15.6724 11.8347C15.2487 12.4195 14.647 13.0932 13.8673 13.8559C13.1046 14.6356 12.4267 15.2415 11.8334 15.6737C11.2403 16.1058 10.7444 16.4237 10.3461 16.6271C9.94781 16.8305 9.64273 16.9534 9.4309 16.9956L9.11319 17.0592C9.07929 17.0592 9.02408 17.0465 8.9479 17.0211C8.87162 16.9956 8.81654 16.966 8.7826 16.9321L7.33349 15.4575C7.02824 15.1863 6.67248 15.0507 6.26566 15.0507C5.97744 15.0507 5.74875 15.1015 5.57926 15.2033H5.55388L0.647148 18.1016C0.291092 18.3221 0.0792675 18.6017 0.0114288 18.9406Z" fill="white"/>
</svg>

<svg width="25" height="24" fill="none" xmlns="http://www.w3.org/2000/svg"><path d="M.011 18.94c-.05.39.068.73.356 1.018l3.382 3.355c.152.17.351.314.597.433.246.118.487.195.725.228.017 0 .067.005.152.013.085.009.195.013.33.013.323 0 .844-.055 1.564-.165.72-.11 1.602-.382 2.644-.814 1.043-.432 2.225-1.08 3.547-1.945 1.322-.864 2.729-2.05 4.22-3.56 1.187-1.169 2.17-2.287 2.95-3.355.78-1.068 1.406-2.055 1.88-2.962.475-.907.831-1.729 1.069-2.466.237-.737.398-1.373.483-1.907.084-.534.118-.953.101-1.258a21.038 21.038 0 01-.025-.509 2.473 2.473 0 00-.229-.724 1.906 1.906 0 00-.432-.598L19.944.356C19.706.119 19.435 0 19.13 0a.948.948 0 00-.585.19c-.17.128-.313.285-.432.471l-2.72 5.161a1.237 1.237 0 00-.127.89c.067.322.211.593.432.813l1.246 1.246a.424.424 0 01.089.165c.025.077.038.14.038.191-.068.356-.22.763-.458 1.22-.203.407-.517.903-.94 1.488-.424.584-1.026 1.258-1.806 2.02-.762.78-1.44 1.386-2.034 1.819-.593.432-1.089.75-1.487.953-.398.204-.703.326-.915.369l-.318.063a.605.605 0 01-.165-.038.425.425 0 01-.165-.089l-1.45-1.474a1.557 1.557 0 00-1.067-.407c-.289 0-.517.05-.687.152h-.025L.647 18.102c-.356.22-.568.5-.636.839z" fill="#fff"/></svg>
